assets/ui/UI_V2/LightCustomizingOptions_V2/Trash_V2.svg

<?xml version="1.0" encoding="UTF-8" standalone="no"?>
<svg
   width="128"
   height="128"
   viewBox="0 0 128 128"
   fill="none"
   version="1.1"
   id="svg13"
   sodipodi:docname="Trash_V2.svg"
   inkscape:version="1.1.1 (3bf5ae0d25, 2021-09-20)"
   xmlns:inkscape="http://www.inkscape.org/namespaces/inkscape"
   xmlns:sodipodi="http://sodipodi.sourceforge.net/DTD/sodipodi-0.dtd"
   xmlns="http://www.w3.org/2000/svg"
   xmlns:svg="http://www.w3.org/2000/svg">
  <defs
     id="defs17" />
  <sodipodi:namedview
     id="namedview15"
     pagecolor="#ffffff"
     bordercolor="#666666"
     borderopacity="1.0"
     inkscape:pageshadow="2"
     inkscape:pageopacity="0.0"
     inkscape:pagecheckerboard="true"
     showgrid="false"
     inkscape:zoom="4.5227273"
     inkscape:cx="43.889447"
     inkscape:cy="52.40201"
     inkscape:window-width="1920"
     inkscape:window-height="1000"
     inkscape:window-x="-11"
     inkscape:window-y="-11"
     inkscape:window-maximized="1"
     inkscape:current-layer="svg13"
     width="128px" />
  <mask
     id="path-1-inside-1_340_2665"
     fill="#ffffff">
    <path
       fill-rule="evenodd"
       clip-rule="evenodd"
       d="m 2.79306,5.50586 c -0.5911,0 -1.05322,0.50997 -0.99516,1.09821 L 3.21295,20.9421 c 0.0505,0.5118 0.48091,0.9018 0.99516,0.9018 H 15.5089 c 0.5143,0 0.9447,-0.39 0.9952,-0.9018 L 17.9192,6.60407 C 17.9772,6.01583 17.5151,5.50586 16.924,5.50586 Z m 6.2197,12.40974 c 0,0.4667 0.37835,0.845 0.84507,0.845 0.46667,0 0.84507,-0.3783 0.84507,-0.845 V 9.43296 c 0,-0.46672 -0.3784,-0.84507 -0.84507,-0.84507 -0.46672,0 -0.84507,0.37835 -0.84507,0.84507 z m -2.05327,0.845 c -0.43312,0 -0.79543,-0.3289 -0.83721,-0.76 L 5.29941,9.51016 C 5.2515,9.01587 5.64001,8.58789 6.13661,8.58789 c 0.43312,0 0.79543,0.3289 0.83721,0.75999 l 0.82287,8.49052 c 0.04791,0.4942 -0.3406,0.9222 -0.8372,0.9222 z m 6.63511,-0.76 c -0.0417,0.4311 -0.4041,0.76 -0.8372,0.76 -0.4966,0 -0.8851,-0.428 -0.8372,-0.9222 l 0.8229,-8.49052 c 0.0418,-0.43109 0.4041,-0.75999 0.8372,-0.75999 0.4966,0 0.8851,0.42798 0.8372,0.92227 z"
       id="path2" />
  </mask>
  <path
     fill-rule="evenodd"
     clip-rule="evenodd"
     d="m 22.068531,32.488124 c -3.439127,0 -6.127826,2.9671 -5.790022,6.389586 l 8.233018,83.42131 c 0.293818,2.97774 2.798022,5.24684 5.790022,5.24684 H 96.0516 c 2.99229,0 5.49644,-2.2691 5.79025,-5.24684 l 8.23331,-83.42131 c 0.33746,-3.422486 -2.35112,-6.389586 -5.79025,-6.389586 z M 58.25588,104.69028 c 0,2.71535 2.2013,4.91637 4.91677,4.91637 2.71517,0 4.91677,-2.20102 4.91677,-4.91637 V 55.33672 c 0,-2.71547 -2.2016,-4.91678 -4.91677,-4.91678 -2.71547,0 -4.91677,2.20131 -4.91677,4.91678 z m -11.9463,4.91637 c -2.51997,0 -4.627958,-1.9136 -4.871042,-4.42182 L 36.650931,55.78588 c -0.278749,-2.87587 1.981673,-5.36594 4.870982,-5.36594 2.519967,0 4.627957,1.9136 4.871037,4.42177 l 4.78761,49.39941 c 0.27875,2.87535 -1.98167,5.36553 -4.87098,5.36553 z m 38.60427,-4.42182 c -0.24261,2.50822 -2.35112,4.42182 -4.87098,4.42182 -2.88931,0 -5.14967,-2.49018 -4.87098,-5.36553 l 4.78778,-49.39941 c 0.2432,-2.50817 2.35113,-4.42177 4.87098,-4.42177 2.88931,0 5.14968,2.49007 4.87099,5.36594 z"
     fill="#d9d9d9"
     id="path5"
     style="stroke-width:5.81818" />
  <path
     d="M 1.7979,6.60407 -1.1876,6.89872 Z M 3.21295,20.9421 6.19844,20.6475 Z m 13.29115,0 -2.9855,-0.2946 z M 17.9192,6.60407 14.9337,6.30943 v 0 z M 6.12228,18.0006 9.10829,17.7112 Z M 5.29941,9.51016 2.3134,9.79956 v 0 z M 6.97382,9.34788 9.95983,9.05848 v 0 z m 0.82287,8.49052 -2.98601,0.2894 v 0 z m 5.79791,0.1622 -2.986,-0.2894 z m -1.6744,-0.1622 2.986,0.2894 v 0 z m 0.8229,-8.49052 2.986,0.2894 v 0 z m 1.6744,0.16228 -2.986,-0.2894 v 0 z M 4.78339,6.30943 C 4.89951,7.48593 3.97527,8.50586 2.79306,8.50586 v -6 c -2.364416,0 -4.21288,2.03987 -3.98066,4.39286 z M 6.19844,20.6475 4.78339,6.30943 -1.1876,6.89872 0.227452,21.2367 Z M 4.20811,18.8439 c 1.0285,0 1.88932,0.78 1.99033,1.8036 l -5.970988,0.5892 c 0.202026,2.0471 1.923668,3.6072 3.980658,3.6072 z m 11.30079,0 H 4.20811 v 6 H 15.5089 Z m -1.9903,1.8036 c 0.101,-1.0236 0.9618,-1.8036 1.9903,-1.8036 v 6 c 2.057,0 3.7787,-1.5601 3.9807,-3.6072 z m 1.4151,-14.33807 -1.4151,14.33807 5.971,0.5892 1.415,-14.33798 z m 1.9903,2.19643 c -1.1822,0 -2.1065,-1.01994 -1.9903,-2.19643 l 5.9709,0.58929 C 21.1369,4.54573 19.2884,2.50586 16.924,2.50586 Z m -14.13094,0 H 16.924 v -6 H 2.79306 Z m 7.06477,7.25474 c 1.19017,0 2.15497,0.9648 2.15497,2.155 H 6.01276 c 0,2.1235 1.72149,3.845 3.84507,3.845 z m -2.15493,2.155 c 0,-1.1902 0.96479,-2.155 2.15493,-2.155 v 6 c 2.12357,0 3.84507,-1.7215 3.84507,-3.845 z m 0,-8.48264 v 8.48264 h 6 V 9.43296 Z m 2.15493,2.15494 c -1.19014,0 -2.15493,-0.9648 -2.15493,-2.15494 h 6 c 0,-2.12357 -1.7215,-3.84507 -3.84507,-3.84507 z M 12.0128,9.43296 c 0,1.19014 -0.9648,2.15494 -2.15497,2.15494 V 5.58789 c -2.12357,0 -3.84507,1.72149 -3.84507,3.84507 z m 0,8.48264 V 9.43296 H 6.01276 V 17.9156 Z M 3.13627,18.29 c 0.1908,1.9687 1.84534,3.4706 3.82322,3.4706 v -6 c 1.11164,0 2.04156,0.8442 2.1488,1.9506 z M 2.3134,9.79956 3.13627,18.29 9.10829,17.7112 8.28541,9.22076 Z M 6.13661,5.58789 c -2.26782,0 -4.04198,1.95442 -3.82321,4.21167 L 8.28541,9.22076 C 8.40837,10.4894 7.41122,11.5879 6.13661,11.5879 Z M 9.95983,9.05848 C 9.76903,7.08983 8.11449,5.58789 6.13661,5.58789 v 6.00001 c -1.11165,0 -2.04156,-0.8442 -2.1488,-1.95062 z M 10.7827,17.549 9.95983,9.05848 3.98781,9.63728 4.81068,18.1278 Z m -3.82321,4.2116 c 2.26781,0 4.04201,-1.9544 3.82321,-4.2116 l -5.97202,0.5788 c -0.12295,-1.2687 0.8742,-2.3672 2.14881,-2.3672 z m 5.79791,0 c 1.9779,0 3.6324,-1.5019 3.8232,-3.4706 l -5.972,-0.5788 c 0.1073,-1.1064 1.0372,-1.9506 2.1488,-1.9506 z M 8.93422,17.549 c -0.21877,2.2572 1.55538,4.2116 3.82318,4.2116 v -6 c 1.2746,0 2.2718,1.0985 2.1488,2.3672 z M 9.75709,9.05848 8.93422,17.549 14.9062,18.1278 15.7291,9.63728 Z M 13.5803,5.58789 c -1.9779,0 -3.63241,1.50194 -3.82321,3.47059 l 5.97201,0.5788 c -0.1072,1.10642 -1.0372,1.95062 -2.1488,1.95062 z m 3.8232,4.21167 C 17.6223,7.54231 15.8481,5.58789 13.5803,5.58789 v 6.00001 c -1.2746,0 -2.2718,-1.0985 -2.1488,-2.36714 z M 16.5806,18.29 17.4035,9.79956 11.4315,9.22076 10.6086,17.7112 Z"
     fill="#D9D9D9"
     mask="url(#path-1-inside-1_340_2665)"
     id="path7"
     style="fill:#ffffff"
     transform="matrix(5.8181818,0,0,5.8181843,5.818,0.45401611)" />
  <rect
     y="19.397215"
     width="116.36364"
     height="18.028168"
     rx="5.818182"
     fill="#D9D9D9"
     id="rect9"
     style="fill:#ffffff;stroke-width:5.81818"
     x="5.8179998" />
  <path
     d="M 84.48971,24.341328 82.07924,11.051897 C 81.57713,8.2843031 79.16724,6.2722001 76.35473,6.2722001 H 51.65241 c -2.81274,0 -5.22269,2.012103 -5.72474,4.7796969 l -2.41082,13.289431"
     stroke="#D9D9D9"
     stroke-width="11.6364"
     id="path11"
     style="stroke:#ffffff" />
</svg>

<svg width="20" height="22" viewBox="0 0 20 22" fill="none" xmlns="http://www.w3.org/2000/svg">
<mask id="path-1-inside-1_340_2665" fill="white">
<path fill-rule="evenodd" clip-rule="evenodd" d="M2.79306 5.50586C2.20196 5.50586 1.73984 6.01583 1.7979 6.60407L3.21295 20.9421C3.26345 21.4539 3.69386 21.8439 4.20811 21.8439H15.5089C16.0232 21.8439 16.4536 21.4539 16.5041 20.9421L17.9192 6.60407C17.9772 6.01583 17.5151 5.50586 16.924 5.50586H2.79306ZM9.01276 17.9156C9.01276 18.3823 9.39111 18.7606 9.85783 18.7606C10.3245 18.7606 10.7029 18.3823 10.7029 17.9156V9.43296C10.7029 8.96624 10.3245 8.58789 9.85783 8.58789C9.39111 8.58789 9.01276 8.96624 9.01276 9.43296V17.9156ZM6.95949 18.7606C6.52637 18.7606 6.16406 18.4317 6.12228 18.0006L5.29941 9.51016C5.2515 9.01587 5.64001 8.58789 6.13661 8.58789C6.56973 8.58789 6.93204 8.91679 6.97382 9.34788L7.79669 17.8384C7.8446 18.3326 7.45609 18.7606 6.95949 18.7606ZM13.5946 18.0006C13.5529 18.4317 13.1905 18.7606 12.7574 18.7606C12.2608 18.7606 11.8723 18.3326 11.9202 17.8384L12.7431 9.34788C12.7849 8.91679 13.1472 8.58789 13.5803 8.58789C14.0769 8.58789 14.4654 9.01587 14.4175 9.51016L13.5946 18.0006Z"/>
</mask>
<path fill-rule="evenodd" clip-rule="evenodd" d="M2.79306 5.50586C2.20196 5.50586 1.73984 6.01583 1.7979 6.60407L3.21295 20.9421C3.26345 21.4539 3.69386 21.8439 4.20811 21.8439H15.5089C16.0232 21.8439 16.4536 21.4539 16.5041 20.9421L17.9192 6.60407C17.9772 6.01583 17.5151 5.50586 16.924 5.50586H2.79306ZM9.01276 17.9156C9.01276 18.3823 9.39111 18.7606 9.85783 18.7606C10.3245 18.7606 10.7029 18.3823 10.7029 17.9156V9.43296C10.7029 8.96624 10.3245 8.58789 9.85783 8.58789C9.39111 8.58789 9.01276 8.96624 9.01276 9.43296V17.9156ZM6.95949 18.7606C6.52637 18.7606 6.16406 18.4317 6.12228 18.0006L5.29941 9.51016C5.2515 9.01587 5.64001 8.58789 6.13661 8.58789C6.56973 8.58789 6.93204 8.91679 6.97382 9.34788L7.79669 17.8384C7.8446 18.3326 7.45609 18.7606 6.95949 18.7606ZM13.5946 18.0006C13.5529 18.4317 13.1905 18.7606 12.7574 18.7606C12.2608 18.7606 11.8723 18.3326 11.9202 17.8384L12.7431 9.34788C12.7849 8.91679 13.1472 8.58789 13.5803 8.58789C14.0769 8.58789 14.4654 9.01587 14.4175 9.51016L13.5946 18.0006Z" fill="#D9D9D9"/>
<path d="M1.7979 6.60407L-1.1876 6.89872L1.7979 6.60407ZM3.21295 20.9421L6.19844 20.6475L3.21295 20.9421ZM16.5041 20.9421L13.5186 20.6475L16.5041 20.9421ZM17.9192 6.60407L14.9337 6.30943V6.30943L17.9192 6.60407ZM6.12228 18.0006L9.10829 17.7112L6.12228 18.0006ZM5.29941 9.51016L2.3134 9.79956L2.3134 9.79956L5.29941 9.51016ZM6.97382 9.34788L9.95983 9.05848V9.05848L6.97382 9.34788ZM7.79669 17.8384L4.81068 18.1278L4.81068 18.1278L7.79669 17.8384ZM13.5946 18.0006L10.6086 17.7112L13.5946 18.0006ZM11.9202 17.8384L14.9062 18.1278V18.1278L11.9202 17.8384ZM12.7431 9.34788L15.7291 9.63728V9.63728L12.7431 9.34788ZM14.4175 9.51016L11.4315 9.22076V9.22076L14.4175 9.51016ZM4.78339 6.30943C4.89951 7.48593 3.97527 8.50586 2.79306 8.50586V2.50586C0.428644 2.50586 -1.41982 4.54573 -1.1876 6.89872L4.78339 6.30943ZM6.19844 20.6475L4.78339 6.30943L-1.1876 6.89872L0.227452 21.2367L6.19844 20.6475ZM4.20811 18.8439C5.23661 18.8439 6.09743 19.6239 6.19844 20.6475L0.227452 21.2367C0.429478 23.2838 2.15112 24.8439 4.20811 24.8439V18.8439ZM15.5089 18.8439H4.20811V24.8439H15.5089V18.8439ZM13.5186 20.6475C13.6196 19.6239 14.4804 18.8439 15.5089 18.8439V24.8439C17.5659 24.8439 19.2876 23.2838 19.4896 21.2367L13.5186 20.6475ZM14.9337 6.30943L13.5186 20.6475L19.4896 21.2367L20.9046 6.89872L14.9337 6.30943ZM16.924 8.50586C15.7418 8.50586 14.8175 7.48592 14.9337 6.30943L20.9046 6.89872C21.1369 4.54573 19.2884 2.50586 16.924 2.50586V8.50586ZM2.79306 8.50586H16.924V2.50586H2.79306V8.50586ZM9.85783 15.7606C11.048 15.7606 12.0128 16.7254 12.0128 17.9156H6.01276C6.01276 20.0391 7.73425 21.7606 9.85783 21.7606V15.7606ZM7.7029 17.9156C7.7029 16.7254 8.66769 15.7606 9.85783 15.7606V21.7606C11.9814 21.7606 13.7029 20.0391 13.7029 17.9156H7.7029ZM7.7029 9.43296V17.9156H13.7029V9.43296H7.7029ZM9.85783 11.5879C8.66769 11.5879 7.7029 10.6231 7.7029 9.43296H13.7029C13.7029 7.30939 11.9814 5.58789 9.85783 5.58789V11.5879ZM12.0128 9.43296C12.0128 10.6231 11.048 11.5879 9.85783 11.5879V5.58789C7.73426 5.58789 6.01276 7.30938 6.01276 9.43296H12.0128ZM12.0128 17.9156V9.43296H6.01276V17.9156H12.0128ZM3.13627 18.29C3.32707 20.2587 4.98161 21.7606 6.95949 21.7606V15.7606C8.07113 15.7606 9.00105 16.6048 9.10829 17.7112L3.13627 18.29ZM2.3134 9.79956L3.13627 18.29L9.10829 17.7112L8.28541 9.22076L2.3134 9.79956ZM6.13661 5.58789C3.86879 5.58789 2.09463 7.54231 2.3134 9.79956L8.28541 9.22076C8.40837 10.4894 7.41122 11.5879 6.13661 11.5879V5.58789ZM9.95983 9.05848C9.76903 7.08983 8.11449 5.58789 6.13661 5.58789V11.5879C5.02496 11.5879 4.09505 10.7437 3.98781 9.63728L9.95983 9.05848ZM10.7827 17.549L9.95983 9.05848L3.98781 9.63728L4.81068 18.1278L10.7827 17.549ZM6.95949 21.7606C9.2273 21.7606 11.0015 19.8062 10.7827 17.549L4.81068 18.1278C4.68773 16.8591 5.68488 15.7606 6.95949 15.7606V21.7606ZM12.7574 21.7606C14.7353 21.7606 16.3898 20.2587 16.5806 18.29L10.6086 17.7112C10.7159 16.6048 11.6458 15.7606 12.7574 15.7606V21.7606ZM8.93422 17.549C8.71545 19.8062 10.4896 21.7606 12.7574 21.7606V15.7606C14.032 15.7606 15.0292 16.8591 14.9062 18.1278L8.93422 17.549ZM9.75709 9.05848L8.93422 17.549L14.9062 18.1278L15.7291 9.63728L9.75709 9.05848ZM13.5803 5.58789C11.6024 5.58789 9.94789 7.08983 9.75709 9.05848L15.7291 9.63728C15.6219 10.7437 14.6919 11.5879 13.5803 11.5879V5.58789ZM17.4035 9.79956C17.6223 7.54231 15.8481 5.58789 13.5803 5.58789V11.5879C12.3057 11.5879 11.3085 10.4894 11.4315 9.22076L17.4035 9.79956ZM16.5806 18.29L17.4035 9.79956L11.4315 9.22076L10.6086 17.7112L16.5806 18.29Z" fill="#D9D9D9" mask="url(#path-1-inside-1_340_2665)"/>
<rect y="3.25586" width="20" height="3.09859" rx="1" fill="#D9D9D9"/>
<path d="M13.5217 4.10563L13.1074 1.82151C13.0211 1.34583 12.6069 1 12.1235 1H7.87779C7.39435 1 6.98014 1.34583 6.89385 1.82151L6.47949 4.10563" stroke="#D9D9D9" stroke-width="2"/>
</svg>
